ncols 64
nrows 48
xllcorner 500000.0
yllcorner 3999904.0
cellsize 2.0
NODATA_value -9999.0
-9999.0 -9999.0 -9999.0 -9999.0 2.0 3.0 4.0 2.0 3.0 4.0 2.0 2.0 3.0 4.0 2.0 3.0 4.0 2.0 3.0 4.0 2.0 3.0 3.0 1.0 2.0 3.0 4.0 2.0 3.0 4.0 2.0 3.0 4.0 1.0 2.0 3.0 4.0 2.0 3.0 4.0 2.0 3.0 4.0 1.0 2.0 3.0 1.0 2.0 3.0 4.0 2.0 3.0 4.0 2.0 2.0 3.0 1.0 2.0 3.0 4.0 2.0 3.0 4.0 2.0
-9999.0 -9999.0 -9999.0 -9999.0 4.0 1.0 2.0 3.0 4.0 2.0 3.0 4.0 2.0 3.0 4.0 2.0 2.0 3.0 4.0 2.0 3.0 4.0 2.0 3.0 4.0 2.0 3.0 3.0 1.0 2.0 3.0 4.0 2.0 3.0 4.0 2.0 3.0 4.0 1.0 2.0 3.0 4.0 2.0 3.0 4.0 2.0 3.0 4.0 1.0 2.0 3.0 1.0 2.0 3.0 4.0 2.0 3.0 4.0 2.0 2.0 3.0 1.0 2.0 3.0
-9999.0 -9999.0 -9999.0 -9999.0 2.0 3.0 4.0 2.0 3.0 4.0 1.0 2.0 3.0 4.0 2.0 3.0 4.0 2.0 3.0 4.0 1.0 2.0 3.0 4.0 2.0 3.0 4.0 2.0 3.0 4.0 2.0 2.0 3.0 1.0 2.0 3.0 4.0 2.0 3.0 4.0 2.0 3.0 3.0 1.0 2.0 3.0 4.0 2.0 3.0 4.0 2.0 3.0 4.0 1.0 2.0 3.0 1.0 2.0 3.0 4.0 2.0 3.0 4.0 1.0
3.0 4.0 2.0 3.0 3.0 4.0 2.0 3.0 4.0 2.0 3.0 4.0 2.0 3.0 4.0 1.0 2.0 3.0 4.0 2.0 3.0 4.0 2.0 3.0 4.0 1.0 2.0 3.0 4.0 2.0 3.0 4.0 2.0 3.0 4.0 2.0 2.0 3.0 1.0 2.0 3.0 4.0 2.0 3.0 4.0 2.0 2.0 3.0 1.0 2.0 3.0 4.0 2.0 3.0 4.0 2.0 3.0 3.0 1.0 2.0 3.0 1.0 2.0 3.0
4.0 2.0 3.0 4.0 2.0 3.0 4.0 2.0 2.0 3.0 4.0 2.0 3.0 4.0 2.0 3.0 4.0 2.0 3.0 3.0 1.0 2.0 3.0 4.0 2.0 3.0 4.0 2.0 3.0 4.0 1.0 2.0 3.0 4.0 2.0 3.0 4.0 2.0 3.0 4.0 1.0 2.0 3.0 1.0 2.0 3.0 4.0 2.0 3.0 4.0 2.0 2.0 3.0 1.0 2.0 3.0 4.0 2.0 3.0 4.0 2.0 3.0 3.0 1.0
3.0 4.0 1.0 2.0 3.0 4.0 2.0 3.0 4.0 2.0 3.0 4.0 2.0 2.0 3.0 4.0 2.0 3.0 4.0 2.0 3.0 4.0 2.0 2.0 3.0 1.0 2.0 3.0 4.0 2.0 3.0 4.0 2.0 3.0 3.0 1.0 2.0 3.0 4.0 2.0 3.0 4.0 2.0 3.0 4.0 1.0 2.0 3.0 1.0 2.0 3.0 4.0 2.0 3.0 4.0 1.0 2.0 3.0 1.0 2.0 3.0 4.0 2.0 3.0
4.0 2.0 3.0 4.0 2.0 3.0 4.0 1.0 2.0 3.0 4.0 2.0 3.0 4.0 2.0 3.0 4.0 1.0 2.0 3.0 4.0 2.0 3.0 4.0 2.0 3.0 4.0 2.0 2.0 3.0 1.0 2.0 3.0 4.0 2.0 3.0 4.0 2.0 3.0 3.0 1.0 2.0 3.0 4.0 2.0 3.0 4.0 2.0 3.0 4.0 1.0 2.0 3.0 1.0 2.0 3.0 4.0 2.0 3.0 4.0 1.0 2.0 3.0 1.0
2.0 3.0 4.0 2.0 3.0 4.0 2.0 3.0 4.0 2.0 3.0 3.0 1.0 2.0 3.0 4.0 2.0 3.0 4.0 2.0 3.0 4.0 1.0 2.0 3.0 4.0 2.0 3.0 4.0 2.0 3.0 4.0 1.0 2.0 3.0 1.0 2.0 3.0 4.0 2.0 3.0 4.0 2.0 2.0 3.0 1.0 2.0 3.0 4.0 2.0 3.0 4.0 2.0 3.0 3.0 1.0 2.0 3.0 1.0 2.0 3.0 4.0 2.0 3.0
4.0 2.0 3.0 4.0 2.0 2.0 3.0 4.0 2.0 3.0 4.0 2.0 3.0 4.0 2.0 3.0 3.0 1.0 2.0 3.0 4.0 2.0 3.0 4.0 2.0 3.0 4.0 1.0 2.0 3.0 4.0 2.0 3.0 4.0 2.0 3.0 4.0 1.0 2.0 3.0 1.0 2.0 3.0 4.0 2.0 3.0 4.0 2.0 2.0 3.0 1.0 2.0 3.0 4.0 2.0 3.0 4.0 2.0 3.0 3.0 1.0 2.0 3.0 1.0
2.0 3.0 4.0 2.0 3.0 4.0 2.0 3.0 4.0 1.0 2.0 3.0 4.0 2.0 3.0 4.0 2.0 3.0 4.0 2.0 2.0 3.0 1.0 2.0 3.0 4.0 2.0 3.0 4.0 2.0 3.0 3.0 1.0 2.0 3.0 4.0 2.0 3.0 4.0 2.0 3.0 4.0 1.0 2.0 3.0 1.0 2.0 3.0 4.0 2.0 3.0 4.0 1.0 2.0 3.0 1.0 2.0 3.0 4.0 2.0 3.0 4.0 2.0 2.0
4.0 2.0 3.0 4.0 1.0 2.0 3.0 4.0 2.0 3.0 4.0 2.0 3.0 4.0 1.0 2.0 3.0 4.0 2.0 3.0 4.0 2.0 3.0 4.0 2.0 2.0 3.0 1.0 2.0 3.0 4.0 2.0 3.0 4.0 2.0 3.0 3.0 1.0 2.0 3.0 4.0 2.0 3.0 4.0 2.0 3.0 3.0 1.0 2.0 3.0 1.0 2.0 3.0 4.0 2.0 3.0 4.0 1.0 2.0 3.0 1.0 2.0 3.0 -9999.0
2.0 3.0 4.0 2.0 3.0 4.0 2.0 3.0 3.0 1.0 2.0 3.0 4.0 2.0 3.0 4.0 2.0 3.0 4.0 1.0 2.0 3.0 4.0 2.0 3.0 4.0 2.0 3.0 4.0 1.0 2.0 3.0 1.0 2.0 3.0 4.0 2.0 3.0 4.0 2.0 2.0 3.0 1.0 2.0 3.0 4.0 2.0 3.0 4.0 2.0 3.0 3.0 1.0 2.0 3.0 1.0 2.0 3.0 4.0 2.0 3.0 4.0 1.0 -9999.0
4.0 2.0 2.0 3.0 4.0 2.0 3.0 4.0 2.0 3.0 4.0 2.0 3.0 3.0 1.0 2.0 3.0 4.0 2.0 3.0 4.0 2.0 3.0 3.0 1.0 2.0 3.0 4.0 2.0 3.0 4.0 2.0 3.0 4.0 1.0 2.0 3.0 1.0 2.0 3.0 4.0 2.0 3.0 4.0 1.0 2.0 3.0 1.0 2.0 3.0 4.0 2.0 3.0 4.0 2.0 2.0 3.0 1.0 2.0 3.0 1.0 2.0 3.0 -9999.0
2.0 3.0 4.0 2.0 3.0 4.0 1.0 2.0 3.0 4.0 2.0 3.0 4.0 2.0 3.0 4.0 2.0 2.0 3.0 1.0 2.0 3.0 4.0 2.0 3.0 4.0 2.0 3.0 3.0 1.0 2.0 3.0 4.0 2.0 3.0 4.0 2.0 3.0 4.0 1.0 2.0 3.0 1.0 2.0 3.0 4.0 2.0 3.0 4.0 1.0 2.0 3.0 1.0 2.0 3.0 4.0 2.0 3.0 4.0 2.0 2.0 3.0 1.0 -9999.0
3.0 1.0 2.0 3.0 4.0 2.0 3.0 4.0 2.0 3.0 4.0 1.0 2.0 3.0 4.0 2.0 3.0 4.0 2.0 3.0 4.0 1.0 2.0 3.0 1.0 2.0 3.0 4.0 2.0 3.0 4.0 2.0 2.0 3.0 1.0 2.0 3.0 4.0 2.0 3.0 4.0 2.0 3.0 3.0 1.0 2.0 3.0 1.0 2.0 3.0 4.0 2.0 3.0 4.0 1.0 2.0 3.0 1.0 2.0 3.0 4.0 2.0 3.0 -9999.0
2.0 3.0 4.0 2.0 3.0 3.0 1.0 2.0 3.0 4.0 2.0 3.0 4.0 2.0 3.0 4.0 1.0 2.0 3.0 4.0 2.0 3.0 4.0 2.0 3.0 4.0 1.0 2.0 3.0 1.0 2.0 3.0 4.0 2.0 3.0 4.0 2.0 2.0 3.0 1.0 2.0 3.0 4.0 2.0 3.0 4.0 2.0 3.0 3.0 1.0 2.0 3.0 1.0 2.0 3.0 4.0 2.0 3.0 3.0 1.0 2.0 3.0 1.0 -9999.0
3.0 4.0 2.0 3.0 4.0 2.0 3.0 4.0 2.0 2.0 3.0 1.0 2.0 3.0 4.0 2.0 3.0 4.0 2.0 3.0 3.0 1.0 2.0 3.0 4.0 2.0 3.0 4.0 2.0 3.0 4.0 1.0 2.0 3.0 1.0 2.0 3.0 4.0 2.0 3.0 4.0 1.0 2.0 3.0 1.0 2.0 3.0 4.0 2.0 3.0 4.0 2.0 2.0 3.0 1.0 2.0 3.0 1.0 2.0 3.0 4.0 2.0 3.0 3.0
2.0 3.0 4.0 1.0 2.0 3.0 4.0 2.0 3.0 4.0 2.0 3.0 4.0 2.0 2.0 3.0 1.0 2.0 3.0 4.0 2.0 3.0 4.0 2.0 3.0 3.0 1.0 2.0 3.0 4.0 2.0 3.0 4.0 2.0 3.0 3.0 1.0 2.0 3.0 1.0 2.0 3.0 4.0 2.0 3.0 4.0 1.0 2.0 3.0 1.0 2.0 3.0 4.0 2.0 3.0 4.0 1.0 2.0 3.0 1.0 2.0 3.0 1.0 2.0
3.0 4.0 2.0 3.0 4.0 2.0 3.0 4.0 1.0 2.0 3.0 4.0 2.0 3.0 4.0 2.0 3.0 4.0 1.0 2.0 3.0 1.0 2.0 3.0 4.0 2.0 3.0 4.0 2.0 2.0 3.0 1.0 2.0 3.0 4.0 2.0 3.0 4.0 2.0 3.0 3.0 1.0 2.0 3.0 1.0 2.0 3.0 4.0 2.0 3.0 4.0 1.0 2.0 3.0 1.0 2.0 3.0 4.0 2.0 3.0 4.0 1.0 2.0 3.0
2.0 3.0 3.0 1.0 2.0 3.0 4.0 2.0 3.0 4.0 2.0 3.0 3.0 1.0 2.0 3.0 4.0 2.0 3.0 4.0 2.0 3.0 4.0 1.0 2.0 3.0 1.0 2.0 3.0 4.0 2.0 3.0 4.0 1.0 2.0 3.0 1.0 2.0 3.0 4.0 2.0 3.0 4.0 2.0 2.0 3.0 1.0 2.0 3.0 1.0 2.0 3.0 4.0 2.0 3.0 3.0 1.0 2.0 3.0 1.0 2.0 3.0 4.0 2.0
3.0 4.0 2.0 3.0 4.0 2.0 2.0 3.0 1.0 2.0 3.0 4.0 2.0 3.0 4.0 2.0 3.0 3.0 1.0 2.0 3.0 4.0 2.0 3.0 4.0 2.0 3.0 4.0 1.0 2.0 3.0 1.0 2.0 3.0 4.0 2.0 3.0 4.0 1.0 2.0 3.0 1.0 2.0 3.0 4.0 2.0 3.0 4.0 2.0 2.0 3.0 1.0 2.0 3.0 1.0 2.0 3.0 4.0 2.0 3.0 3.0 1.0 2.0 3.0
1.0 2.0 3.0 4.0 2.0 3.0 4.0 2.0 3.0 4.0 1.0 2.0 3.0 1.0 2.0 3.0 4.0 2.0 3.0 4.0 2.0 2.0 3.0 1.0 2.0 3.0 4.0 2.0 3.0 4.0 2.0 3.0 3.0 1.0 2.0 3.0 1.0 2.0 3.0 4.0 2.0 3.0 4.0 1.0 2.0 3.0 1.0 2.0 3.0 4.0 2.0 3.0 4.0 1.0 2.0 3.0 1.0 2.0 3.0 1.0 2.0 3.0 4.0 2.0
3.0 4.0 2.0 3.0 4.0 1.0 2.0 3.0 4.0 2.0 3.0 4.0 2.0 3.0 4.0 1.0 2.0 3.0 1.0 2.0 3.0 4.0 2.0 3.0 4.0 2.0 2.0 3.0 1.0 2.0 3.0 4.0 2.0 3.0 4.0 2.0 3.0 3.0 1.0 2.0 3.0 1.0 2.0 3.0 4.0 2.0 3.0 4.0 1.0 2.0 3.0 1.0 2.0 3.0 4.0 2.0 3.0 4.0 1.0 2.0 3.0 1.0 2.0 3.0
1.0 2.0 3.0 4.0 2.0 3.0 4.0 2.0 3.0 3.0 1.0 2.0 3.0 4.0 2.0 3.0 4.0 2.0 3.0 4.0 1.0 2.0 3.0 1.0 2.0 3.0 4.0 2.0 3.0 4.0 1.0 2.0 3.0 1.0 2.0 3.0 4.0 2.0 3.0 4.0 2.0 2.0 3.0 1.0 2.0 3.0 1.0 2.0 3.0 4.0 2.0 3.0 3.0 1.0 2.0 3.0 1.0 2.0 3.0 4.0 2.0 3.0 4.0 1.0
3.0 4.0 2.0 2.0 3.0 1.0 2.0 3.0 4.0 2.0 3.0 4.0 2.0 3.0 3.0 1.0 2.0 3.0 4.0 2.0 3.0 4.0 2.0 3.0 4.0 1.0 2.0 3.0 1.0 2.0 3.0 4.0 2.0 3.0 4.0 1.0 2.0 3.0 1.0 2.0 3.0 4.0 2.0 3.0 4.0 1.0 2.0 3.0 1.0 2.0 3.0 1.0 2.0 3.0 4.0 2.0 2.0 3.0 1.0 2.0 3.0 1.0 2.0 3.0
4.0 2.0 3.0 4.0 2.0 3.0 4.0 1.0 2.0 3.0 1.0 2.0 3.0 4.0 2.0 3.0 4.0 2.0 2.0 3.0 1.0 2.0 3.0 4.0 2.0 3.0 4.0 2.0 3.0 3.0 1.0 2.0 3.0 1.0 2.0 3.0 4.0 2.0 3.0 4.0 1.0 2.0 3.0 1.0 2.0 3.0 4.0 2.0 3.0 4.0 1.0 2.0 3.0 1.0 2.0 3.0 1.0 2.0 3.0 4.0 2.0 2.0 3.0 1.0
3.0 4.0 1.0 2.0 3.0 4.0 2.0 3.0 4.0 2.0 3.0 4.0 1.0 2.0 3.0 1.0 2.0 3.0 4.0 2.0 3.0 4.0 1.0 2.0 3.0 1.0 2.0 3.0 4.0 2.0 3.0 4.0 2.0 2.0 3.0 1.0 2.0 3.0 1.0 2.0 3.0 4.0 2.0 3.0 3.0 1.0 2.0 3.0 1.0 2.0 3.0 4.0 2.0 3.0 4.0 1.0 2.0 3.0 1.0 2.0 3.0 1.0 2.0 3.0
4.0 2.0 3.0 4.0 2.0 3.0 3.0 1.0 2.0 3.0 4.0 2.0 3.0 4.0 2.0 3.0 4.0 1.0 2.0 3.0 1.0 2.0 3.0 4.0 2.0 3.0 4.0 1.0 2.0 3.0 1.0 2.0 3.0 4.0 2.0 3.0 4.0 2.0 2.0 3.0 1.0 2.0 3.0 1.0 2.0 3.0 4.0 2.0 3.0 3.0 1.0 2.0 3.0 1.0 2.0 3.0 4.0 2.0 3.0 4.0 1.0 2.0 3.0 1.0
2.0 3.0 1.0 2.0 3.0 4.0 2.0 3.0 4.0 2.0 2.0 3.0 1.0 2.0 3.0 4.0 2.0 3.0 4.0 2.0 3.0 3.0 1.0 2.0 3.0 1.0 2.0 3.0 4.0 2.0 3.0 4.0 1.0 2.0 3.0 1.0 2.0 3.0 4.0 2.0 3.0 4.0 1.0 2.0 3.0 1.0 2.0 3.0 1.0 2.0 3.0 4.0 2.0 2.0 3.0 1.0 2.0 3.0 1.0 2.0 3.0 4.0 2.0 3.0
4.0 2.0 3.0 4.0 1.0 2.0 3.0 1.0 2.0 3.0 4.0 2.0 3.0 4.0 2.0 2.0 3.0 1.0 2.0 3.0 4.0 2.0 3.0 4.0 2.0 3.0 3.0 1.0 2.0 3.0 1.0 2.0 3.0 4.0 2.0 3.0 4.0 1.0 2.0 3.0 1.0 2.0 3.0 4.0 2.0 3.0 4.0 1.0 2.0 3.0 1.0 2.0 3.0 1.0 2.0 3.0 4.0 1.0 2.0 3.0 1.0 2.0 3.0 1.0
2.0 3.0 4.0 2.0 3.0 4.0 2.0 3.0 4.0 1.0 2.0 3.0 1.0 2.0 3.0 4.0 2.0 3.0 4.0 1.0 2.0 3.0 1.0 2.0 3.0 4.0 2.0 3.0 4.0 2.0 2.0 3.0 1.0 2.0 3.0 1.0 2.0 3.0 4.0 2.0 3.0 3.0 1.0 2.0 3.0 1.0 2.0 3.0 4.0 2.0 3.0 4.0 1.0 2.0 3.0 1.0 2.0 3.0 1.0 2.0 3.0 4.0 1.0 2.0
4.0 2.0 3.0 3.0 1.0 2.0 3.0 4.0 2.0 3.0 4.0 2.0 3.0 4.0 1.0 2.0 3.0 1.0 2.0 3.0 4.0 2.0 3.0 4.0 1.0 2.0 3.0 1.0 2.0 3.0 4.0 2.0 3.0 4.0 1.0 2.0 3.0 1.0 2.0 3.0 1.0 2.0 3.0 4.0 2.0 2.0 3.0 1.0 2.0 3.0 1.0 2.0 3.0 4.0 2.0 3.0 3.0 1.0 2.0 3.0 1.0 2.0 3.0 1.0
2.0 3.0 4.0 2.0 3.0 4.0 2.0 2.0 3.0 1.0 2.0 3.0 4.0 2.0 3.0 4.0 2.0 3.0 3.0 1.0 2.0 3.0 1.0 2.0 3.0 4.0 2.0 3.0 4.0 1.0 2.0 3.0 1.0 2.0 3.0 4.0 2.0 3.0 4.0 1.0 2.0 3.0 1.0 2.0 3.0 1.0 2.0 3.0 4.0 2.0 2.0 3.0 1.0 2.0 3.0 1.0 2.0 3.0 4.0 2.0 3.0 3.0 1.0 2.0
4.0 1.0 2.0 3.0 1.0 2.0 3.0 4.0 2.0 3.0 4.0 1.0 2.0 3.0 1.0 2.0 3.0 4.0 2.0 3.0 4.0 2.0 2.0 3.0 1.0 2.0 3.0 1.0 2.0 3.0 4.0 2.0 3.0 3.0 1.0 2.0 3.0 1.0 2.0 3.0 4.0 2.0 3.0 4.0 1.0 2.0 3.0 1.0 2.0 3.0 1.0 2.0 3.0 4.0 1.0 2.0 3.0 1.0 2.0 3.0 1.0 2.0 3.0 4.0
2.0 3.0 4.0 2.0 3.0 4.0 1.0 2.0 3.0 1.0 2.0 3.0 4.0 2.0 3.0 4.0 1.0 2.0 3.0 1.0 2.0 3.0 4.0 2.0 3.0 4.0 2.0 2.0 3.0 1.0 2.0 3.0 1.0 2.0 3.0 4.0 2.0 3.0 3.0 1.0 2.0 3.0 1.0 2.0 3.0 4.0 2.0 3.0 4.0 1.0 2.0 3.0 1.0 2.0 3.0 1.0 2.0 3.0 4.0 1.0 2.0 3.0 1.0 2.0
3.0 1.0 2.0 3.0 4.0 2.0 3.0 4.0 2.0 3.0 3.0 1.0 2.0 3.0 1.0 2.0 3.0 4.0 2.0 3.0 4.0 1.0 2.0 3.0 1.0 2.0 3.0 4.0 2.0 3.0 4.0 1.0 2.0 3.0 1.0 2.0 3.0 1.0 2.0 3.0 4.0 2.0 2.0 3.0 1.0 2.0 3.0 1.0 2.0 3.0 4.0 2.0 3.0 3.0 1.0 2.0 3.0 1.0 2.0 3.0 1.0 2.0 3.0 4.0
2.0 3.0 4.0 2.0 2.0 3.0 1.0 2.0 3.0 4.0 2.0 3.0 4.0 2.0 3.0 3.0 1.0 2.0 3.0 1.0 2.0 3.0 4.0 2.0 3.0 4.0 1.0 2.0 3.0 1.0 2.0 3.0 4.0 2.0 3.0 4.0 1.0 2.0 3.0 1.0 2.0 3.0 1.0 2.0 3.0 4.0 2.0 2.0 3.0 1.0 2.0 3.0 1.0 2.0 3.0 4.0 2.0 2.0 3.0 1.0 2.0 3.0 1.0 2.0
3.0 1.0 2.0 3.0 4.0 2.0 3.0 4.0 1.0 2.0 3.0 1.0 2.0 3.0 4.0 2.0 3.0 4.0 2.0 2.0 3.0 1.0 2.0 3.0 1.0 2.0 3.0 4.0 2.0 3.0 3.0 1.0 2.0 3.0 1.0 2.0 3.0 4.0 2.0 3.0 4.0 1.0 2.0 3.0 1.0 2.0 3.0 1.0 2.0 3.0 4.0 1.0 2.0 3.0 1.0 2.0 3.0 1.0 2.0 3.0 4.0 2.0 2.0 3.0
2.0 3.0 4.0 1.0 2.0 3.0 1.0 2.0 3.0 4.0 2.0 3.0 4.0 1.0 2.0 3.0 1.0 2.0 3.0 4.0 2.0 3.0 4.0 2.0 2.0 3.0 1.0 2.0 3.0 1.0 2.0 3.0 4.0 2.0 2.0 3.0 1.0 2.0 3.0 1.0 2.0 3.0 4.0 2.0 3.0 3.0 1.0 2.0 3.0 1.0 2.0 3.0 1.0 2.0 3.0 4.0 1.0 2.0 3.0 1.0 2.0 3.0 1.0 2.0
3.0 4.0 2.0 3.0 4.0 2.0 3.0 3.0 1.0 2.0 3.0 1.0 2.0 3.0 4.0 2.0 3.0 4.0 1.0 2.0 3.0 1.0 2.0 3.0 4.0 2.0 3.0 4.0 1.0 2.0 3.0 1.0 2.0 3.0 1.0 2.0 3.0 4.0 2.0 2.0 3.0 1.0 2.0 3.0 1.0 2.0 3.0 4.0 2.0 3.0 3.0 1.0 2.0 3.0 1.0 2.0 3.0 1.0 2.0 3.0 4.0 1.0 2.0 3.0
2.0 2.0 3.0 1.0 2.0 3.0 4.0 2.0 3.0 4.0 2.0 2.0 3.0 1.0 2.0 3.0 1.0 2.0 3.0 4.0 2.0 3.0 3.0 1.0 2.0 3.0 1.0 2.0 3.0 4.0 2.0 3.0 4.0 1.0 2.0 3.0 1.0 2.0 3.0 1.0 2.0 3.0 4.0 1.0 2.0 3.0 1.0 2.0 3.0 1.0 2.0 3.0 4.0 2.0 2.0 3.0 1.0 2.0 3.0 1.0 2.0 3.0 1.0 2.0
3.0 4.0 2.0 3.0 4.0 1.0 2.0 3.0 1.0 2.0 3.0 4.0 2.0 3.0 4.0 2.0 2.0 3.0 1.0 2.0 3.0 1.0 2.0 3.0 4.0 2.0 3.0 3.0 1.0 2.0 3.0 1.0 2.0 3.0 4.0 2.0 3.0 4.0 1.0 2.0 3.0 1.0 2.0 3.0 1.0 2.0 3.0 4.0 1.0 2.0 3.0 1.0 2.0 3.0 1.0 2.0 3.0 4.0 2.0 2.0 3.0 1.0 2.0 3.0
1.0 2.0 3.0 1.0 2.0 3.0 4.0 2.0 3.0 4.0 1.0 2.0 3.0 1.0 2.0 3.0 4.0 2.0 3.0 4.0 1.0 2.0 3.0 1.0 2.0 3.0 1.0 2.0 3.0 4.0 2.0 2.0 3.0 1.0 2.0 3.0 1.0 2.0 3.0 4.0 2.0 3.0 3.0 1.0 2.0 3.0 1.0 2.0 3.0 1.0 2.0 3.0 4.0 1.0 2.0 3.0 1.0 2.0 3.0 1.0 2.0 3.0 4.0 1.0
3.0 4.0 2.0 3.0 3.0 1.0 2.0 3.0 1.0 2.0 3.0 4.0 2.0 3.0 4.0 1.0 2.0 3.0 1.0 2.0 3.0 4.0 2.0 3.0 4.0 1.0 2.0 3.0 1.0 2.0 3.0 1.0 2.0 3.0 4.0 2.0 2.0 3.0 1.0 2.0 3.0 1.0 2.0 3.0 4.0 2.0 2.0 3.0 1.0 2.0 3.0 1.0 2.0 3.0 1.0 2.0 3.0 3.0 1.0 2.0 3.0 1.0 2.0 3.0
1.0 2.0 3.0 4.0 2.0 3.0 4.0 2.0 2.0 3.0 1.0 2.0 3.0 1.0 2.0 3.0 4.0 2.0 3.0 3.0 1.0 2.0 3.0 1.0 2.0 3.0 4.0 2.0 3.0 4.0 1.0 2.0 3.0 1.0 2.0 3.0 1.0 2.0 3.0 4.0 1.0 2.0 3.0 1.0 2.0 3.0 1.0 2.0 3.0 4.0 2.0 2.0 3.0 1.0 2.0 3.0 1.0 2.0 3.0 1.0 2.0 3.0 3.0 1.0
3.0 4.0 1.0 2.0 3.0 1.0 2.0 3.0 4.0 2.0 3.0 4.0 2.0 2.0 3.0 1.0 2.0 3.0 1.0 2.0 3.0 4.0 2.0 2.0 3.0 1.0 2.0 3.0 1.0 2.0 3.0 4.0 2.0 3.0 3.0 1.0 2.0 3.0 1.0 2.0 3.0 1.0 2.0 3.0 4.0 1.0 2.0 3.0 1.0 2.0 3.0 1.0 2.0 3.0 4.0 1.0 2.0 3.0 1.0 2.0 3.0 1.0 2.0 3.0
1.0 2.0 3.0 4.0 2.0 3.0 4.0 1.0 2.0 3.0 1.0 2.0 3.0 4.0 2.0 3.0 4.0 1.0 2.0 3.0 1.0 2.0 3.0 1.0 2.0 3.0 4.0 2.0 2.0 3.0 1.0 2.0 3.0 1.0 2.0 3.0 4.0 2.0 3.0 3.0 1.0 2.0 3.0 1.0 2.0 3.0 1.0 2.0 3.0 4.0 1.0 2.0 3.0 1.0 2.0 3.0 1.0 2.0 3.0 4.0 1.0 2.0 3.0 1.0
2.0 3.0 1.0 2.0 3.0 1.0 2.0 3.0 4.0 2.0 3.0 3.0 1.0 2.0 3.0 1.0 2.0 3.0 4.0 2.0 3.0 4.0 1.0 2.0 3.0 1.0 2.0 3.0 1.0 2.0 3.0 4.0 1.0 2.0 3.0 1.0 2.0 3.0 1.0 2.0 3.0 4.0 2.0 2.0 3.0 1.0 2.0 3.0 1.0 2.0 3.0 1.0 2.0 3.0 3.0 1.0 2.0 3.0 1.0 2.0 3.0 1.0 2.0 3.0
