ncols 12
nrows 10
xllcorner 0.0
yllcorner 0.0
cellsize 1.0
NODATA_value 255.0
5.0 6.0 7.0 8.0 5.0 6.0 7.0 8.0 5.0 6.0 7.0 8.0
5.0 6.0 7.0 8.0 5.0 6.0 7.0 8.0 5.0 6.0 7.0 8.0
5.0 6.0 7.0 8.0 5.0 6.0 7.0 8.0 5.0 6.0 7.0 8.0
5.0 6.0 7.0 8.0 5.0 6.0 7.0 8.0 5.0 6.0 7.0 8.0
5.0 6.0 7.0 255.0 255.0 255.0 7.0 8.0 5.0 6.0 7.0 8.0
5.0 6.0 7.0 8.0 255.0 6.0 7.0 8.0 5.0 6.0 7.0 8.0
5.0 6.0 7.0 8.0 5.0 6.0 7.0 8.0 5.0 6.0 7.0 8.0
5.0 6.0 7.0 8.0 5.0 6.0 7.0 8.0 5.0 6.0 7.0 8.0
5.0 6.0 7.0 8.0 5.0 6.0 7.0 8.0 5.0 6.0 7.0 8.0
5.0 6.0 7.0 8.0 5.0 6.0 7.0 8.0 5.0 6.0 7.0 8.0
